**kern
*staff1
*tb16
=1-
*clefG2
*k[b-e-]
*M6/8
8d/
.
8r
.
8r
.
8r
.
8r
.
8r
.
=2
8g/
.
8f#/
.
8g/
.
8b-\
.
8a/
.
8g/
.
=3
8g/
.
8f#/
.
8g/
.
4a/
.
.
.
8a/
.
=4
!!linebreak:original
8b-\
.
8a/
.
8g/
.
8dd\
.
8cc\
.
8b-\
.
=5
4.b-\
.
.
.
.
.
4a/
.
.
.
8a/
.
=6
8b-\
.
8a/
.
8b-\
.
(8dd\
.
8cc\)
.
8b-\
.
=7
!!linebreak:original
8ee-\
.
8cc\
.
16a/LL
16g/JJ
4f#/
.
.
.
8dd\
.
=8
8dd\L
.
8cc\J
.
8b-\
.
8b-/L
.
8a/J
.
8g/
.
=9
8g/
.
8d/
.
4r
.
.
.
8r
.
8ff\
.
=10
4ee-\
.
.
.
8dd\
.
4cc#\
.
.
.
8ccn\
.
=11
!!linebreak:original
(4.b-\
.
.
.
.
.
8a/L
.
8b-/J)
.
8cc\
.
=12
[4.g/
.
.
.
.
.
8g/L]
.
8a/J
.
8f#/
.
=13
4.f#/
.
.
.
.
.
4g/
.
.
.
8r
.
=14
2.r
.
.
.
.
.
.
.
.
.
.
.
=15
2.r
.
.
.
.
.
.
.
.
.
.
.
==
*-
